packages/assets/static/images/icons/bold/medium-logo--bold.svg

<svg width="24" height="24" viewBox="0 0 24 24" xmlns="http://www.w3.org/2000/svg">
<g clip-path="url(#clip0_2001_46358)">
<path d="M6.875 5.625C5.61415 5.625 4.38161 5.99889 3.33324 6.69938C2.28488 7.39988 1.46778 8.39551 0.985271 9.56039C0.502762 10.7253 0.376516 12.0071 0.622497 13.2437C0.868477 14.4803 1.47564 15.6162 2.3672 16.5078C3.25876 17.3994 4.39467 18.0065 5.6313 18.2525C6.86793 18.4985 8.14973 18.3722 9.31461 17.8897C10.4795 17.4072 11.4751 16.5901 12.1756 15.5418C12.8761 14.4934 13.25 13.2609 13.25 12C13.2483 10.3098 12.5761 8.68928 11.3809 7.49411C10.1857 6.29894 8.56522 5.62674 6.875 5.625ZM6.875 16.125C6.05915 16.125 5.26163 15.8831 4.58328 15.4298C3.90492 14.9766 3.37621 14.3323 3.064 13.5786C2.75179 12.8248 2.6701 11.9954 2.82926 11.1953C2.98843 10.3951 3.3813 9.66008 3.95819 9.08318C4.53508 8.50629 5.27008 8.11343 6.07026 7.95426C6.87043 7.7951 7.69983 7.87679 8.45357 8.189C9.20732 8.50121 9.85155 9.02992 10.3048 9.70827C10.7581 10.3866 11 11.1842 11 12C10.9988 13.0936 10.5638 14.1421 9.79045 14.9154C9.01713 15.6888 7.96864 16.1238 6.875 16.125ZM17.75 5.625C15.5347 5.625 14.375 8.83219 14.375 12C14.375 15.1678 15.5347 18.375 17.75 18.375C19.9653 18.375 21.125 15.1678 21.125 12C21.125 8.83219 19.9653 5.625 17.75 5.625ZM17.75 16.1128C17.3994 15.9103 16.625 14.5106 16.625 12C16.625 9.48937 17.3994 8.08969 17.75 7.88719C18.1006 8.08969 18.875 9.48937 18.875 12C18.875 14.5106 18.1006 15.9103 17.75 16.1128ZM24.5 6.75V17.25C24.5 17.5484 24.3815 17.8345 24.1705 18.0455C23.9595 18.2565 23.6734 18.375 23.375 18.375C23.0766 18.375 22.7905 18.2565 22.5795 18.0455C22.3685 17.8345 22.25 17.5484 22.25 17.25V6.75C22.25 6.45163 22.3685 6.16548 22.5795 5.9545C22.7905 5.74353 23.0766 5.625 23.375 5.625C23.6734 5.625 23.9595 5.74353 24.1705 5.9545C24.3815 6.16548 24.5 6.45163 24.5 6.75Z"/>
</g>
<defs>
<clipPath id="clip0_2001_46358">
<rect width="24" height="24"/>
</clipPath>
</defs>
</svg>

<svg viewBox="0 0 24 24" xmlns="http://www.w3.org/2000/svg" aria-hidden="true" fill="currentColor"><g clip-path="url(#a)"><path d="M6.875 5.625A6.375 6.375 0 1 0 13.25 12a6.38 6.38 0 0 0-6.375-6.375m0 10.5a4.125 4.125 0 1 1 0-8.25 4.125 4.125 0 0 1 0 8.25m10.875-10.5c-2.215 0-3.375 3.207-3.375 6.375s1.16 6.375 3.375 6.375 3.375-3.207 3.375-6.375-1.16-6.375-3.375-6.375m0 10.488c-.35-.203-1.125-1.602-1.125-4.113 0-2.51.774-3.91 1.125-4.113.35.203 1.125 1.602 1.125 4.113 0 2.51-.774 3.91-1.125 4.113M24.5 6.75v10.5a1.125 1.125 0 1 1-2.25 0V6.75a1.125 1.125 0 1 1 2.25 0"/></g><defs><clipPath id="a"><path d="M0 0h24v24H0z"/></clipPath></defs></svg>
